examples/printerdemo/ui/images/settings.svg

<svg width="30" height="30" viewBox="0 0 30 30" fill="none" xmlns="http://www.w3.org/2000/svg">
<path fill-rule="evenodd" clip-rule="evenodd" d="M5.17812 6.25015H1.25C0.559094 6.25015 0 5.69105 0 5.00015C0 4.30924 0.559094 3.75015 1.25 3.75015H5.17812C5.54431 2.30987 6.53431 1.10868 7.87831 0.475148C9.22106 -0.158383 10.7787 -0.158383 12.1214 0.475148C13.4654 1.10855 14.4554 2.30971 14.8216 3.75015H28.7498C29.4407 3.75015 29.9998 4.30924 29.9998 5.00015C29.9998 5.69105 29.4407 6.25015 28.7498 6.25015H14.8216C14.4554 7.69043 13.4654 8.89162 12.1214 9.52515C10.7787 10.1587 9.22109 10.1587 7.87831 9.52515C6.53431 8.89174 5.54434 7.69059 5.17812 6.25015ZM12.3096 4.04312C11.9226 3.10927 11.0107 2.50015 10 2.50015L9.99997 2.50018C8.61934 2.50018 7.49997 3.61955 7.49997 5.00018C7.49997 6.01093 8.10909 6.92277 9.04294 7.30974C9.978 7.69671 11.0522 7.48309 11.7676 6.76774C12.4829 6.0524 12.6965 4.97818 12.3096 4.04312Z" fill="#BDC0D1"/>
<path fill-rule="evenodd" clip-rule="evenodd" d="M15.1781 16.2505H1.25C0.559094 16.2505 0 15.6914 0 15.0005C0 14.3095 0.559094 13.7505 1.25 13.7505H15.1781C15.5443 12.3102 16.5343 11.109 17.8783 10.4755C19.2211 9.84192 20.7787 9.84192 22.1214 10.4755C23.4654 11.1089 24.4554 12.31 24.8216 13.7505H28.7498C29.4407 13.7505 29.9998 14.3095 29.9998 15.0005C29.9998 15.6914 29.4407 16.2505 28.7498 16.2505H24.8216C24.4554 17.6907 23.4654 18.8919 22.1214 19.5255C20.7787 20.159 19.2211 20.159 17.8783 19.5255C16.5343 18.892 15.5443 17.6909 15.1781 16.2505ZM22.3096 14.0434C21.9226 13.1096 21.0107 12.5005 20 12.5005L20 12.5005C18.6193 12.5005 17.5 13.6199 17.5 15.0005C17.5 16.0112 18.1091 16.9231 19.0429 17.31C19.978 17.697 21.0522 17.4834 21.7676 16.768C22.4829 16.0527 22.6965 14.9785 22.3096 14.0434Z" fill="#BDC0D1"/>
<path fill-rule="evenodd" clip-rule="evenodd" d="M5.17812 26.2508H1.25C0.559094 26.2508 0 25.6917 0 25.0008C0 24.3099 0.559094 23.7508 1.25 23.7508H5.17812C5.54431 22.3105 6.53431 21.1093 7.87831 20.4758C9.22106 19.8422 10.7787 19.8422 12.1214 20.4758C13.4654 21.1092 14.4554 22.3103 14.8216 23.7508H28.7498C29.4407 23.7508 29.9998 24.3099 29.9998 25.0008C29.9998 25.6917 29.4407 26.2508 28.7498 26.2508H14.8216C14.4554 27.691 13.4654 28.8922 12.1214 29.5258C10.7787 30.1593 9.22109 30.1593 7.87831 29.5258C6.53431 28.8924 5.54434 27.6912 5.17812 26.2508ZM12.3096 24.0437C11.9226 23.1099 11.0107 22.5008 10 22.5008L9.99997 22.5008C8.61934 22.5008 7.49997 23.6202 7.49997 25.0008C7.49997 26.0115 8.10909 26.9234 9.04294 27.3104C9.978 27.6973 11.0522 27.4837 11.7676 26.7684C12.4829 26.053 12.6965 24.9788 12.3096 24.0437Z" fill="#BDC0D1"/>
</svg>

<svg xmlns="http://www.w3.org/2000/svg" width="30" height="30" fill="#bdc0d1" fill-rule="evenodd"><path d="M5.178 6.25H1.25a1.25 1.25 0 1 1 0-2.5h3.928c.366-1.44 1.356-2.641 2.7-3.275a4.97 4.97 0 0 1 4.243 0 4.98 4.98 0 0 1 2.7 3.275H28.75a1.25 1.25 0 0 1 0 2.5H14.822c-.366 1.44-1.356 2.641-2.7 3.275a4.97 4.97 0 0 1-4.243 0 4.98 4.98 0 0 1-2.7-3.275zm7.131-2.207A2.5 2.5 0 0 0 10 2.5h0a2.5 2.5 0 1 0 2.31 1.543zm2.869 12.207H1.25A1.25 1.25 0 0 1 0 15.001a1.25 1.25 0 0 1 1.25-1.25h13.928c.366-1.44 1.356-2.642 2.7-3.275s2.9-.634 4.243 0a4.98 4.98 0 0 1 2.7 3.275h3.928a1.25 1.25 0 0 1 0 2.5h-3.928c-.366 1.44-1.356 2.641-2.7 3.275s-2.9.633-4.243 0-2.334-1.835-2.7-3.275zm7.131-2.207A2.5 2.5 0 0 0 20 12.501h0a2.5 2.5 0 1 0 2.31 1.542zM5.178 26.251H1.25a1.25 1.25 0 1 1 0-2.5h3.928c.366-1.44 1.356-2.642 2.7-3.275s2.9-.634 4.243 0a4.98 4.98 0 0 1 2.7 3.275H28.75a1.25 1.25 0 1 1 0 2.5H14.822c-.366 1.44-1.356 2.641-2.7 3.275a4.97 4.97 0 0 1-4.243 0 4.98 4.98 0 0 1-2.7-3.275zm7.131-2.207A2.5 2.5 0 0 0 10 22.501h0a2.5 2.5 0 1 0 2.31 1.543z"/></svg>
